!!!OTL: Hui guannan
!!!ARE: Asia, China,ÿHebei, Zhangbei
!! IV, 56
!!!SCT: C1633
!!!YEM: Copyright 1995, estate of Helmut Schaffrath.
**kern
*ICvox
*Ivox
*M4/4
*k[b-e-]
*B-:
{8.ddd
16ddd
8ddd
16ccc
16ddd
8ccc
8aa
8gg
16gg
16gg
=1
8ff
4ff
16gg
16ff
4dd
4cc}
=2
{8.bb-
16bb-
8bb-
8ddd
8ccc
8ddd
8ccc
8bb-
=3
8ccc
8aa
8gg
16gg
16ff
8gg
8ff
8dd
16cc
16dd
=4
8ff
4ff
16gg
16ff
4dd
8.cc}
{16ccc
=5
8ddd
8ddd
4ddd
8ccc
8ddd
8ccc
8ccc
=6
8ddd
16ccc
16ddd
8ccc
8gg
4bb-
4gg}
=7
{8ccc
8aa
4aa
8ff
8gg
8ff
8dd
=8
2cc
8.ff
16gg
8ff
16dd
16ff
=9
4.cc
8dd
2cc}
==
!!!AGN: Xiaodiao. Xu zainian
!!!AMT: simple quadruple
!!!AIN: vox
!!!EED: Helmut Schaffrath
!!!EEV: 1.0
*-
